icons/svg/video-layout-equal_16.svg

<svg width="16" height="16" viewBox="0 0 16 16" xmlns="http://www.w3.org/2000/svg"><title>format/video-layout-equal_16</title><path d="M15 7.5l-6.5 0 0-4.5L14 3c.551 0 1 .449 1 1l0 3.5zm0 4.5c0 .551-.449 1-1 1l-5.5 0 0-4.5 6.5 0 0 3.5zM7.5 7.5L1 7.5 1 4c0-.551.449-1 1-1l5.5 0 0 4.5zm0 5.5L2 13c-.551 0-1-.449-1-1l0-3.5 6.5 0 0 4.5zM14 2L2 2C.895 2 0 2.895 0 4l0 8c0 1.105.895 2 2 2l12 0c1.105 0 2-.895 2-2l0-8c0-1.105-.895-2-2-2z" fill="#000" fill-rule="evenodd"/></svg>

<?xml version="1.0" encoding="utf-8"?>
<!-- Generator: Adobe Illustrator 25.0.0, SVG Export Plug-In . SVG Version: 6.00 Build 0)  -->
<svg version="1.1" id="Layer_1" xmlns="http://www.w3.org/2000/svg" xmlns:xlink="http://www.w3.org/1999/xlink" x="0px" y="0px"
	 viewBox="0 0 16 16" style="enable-background:new 0 0 16 16;" xml:space="preserve">
<style type="text/css">
	.st0{fill-rule:evenodd;clip-rule:evenodd;fill:#121212;}
</style>
<path class="st0" d="M15,7.5H8.5V3H14c0.6,0,1,0.4,1,1V7.5z M15,12c0,0.6-0.4,1-1,1H8.5V8.5H15V12z M7.5,7.5H1V4c0-0.6,0.4-1,1-1
	h5.5V7.5z M7.5,13H2c-0.6,0-1-0.4-1-1V8.5h6.5V13z M14,2H2C0.9,2,0,2.9,0,4v8c0,1.1,0.9,2,2,2h12c1.1,0,2-0.9,2-2V4
	C16,2.9,15.1,2,14,2L14,2z"/>
</svg>
